icons/svg/24x24/book/filled.svg

<svg xmlns="http://www.w3.org/2000/svg" width="24" height="24" viewBox="0 0 24 24">
  <path fill-rule="evenodd" d="M15.5,9 L8.5,9 C7.672,9 7,8.328 7,7.5 C7,6.672 7.672,6 8.5,6 L15.5,6 C16.328,6 17,6.672 17,7.5 C17,8.328 16.328,9 15.5,9 L15.5,9 Z M17,20 L7,20 C6.447,20 6,19.553 6,19 C6,18.447 6.447,18 7,18 L17,18 L17,20 Z M20,16 L20,4 C20,2.896 19.104,2 18,2 L7,2 C5.343,2 4,3.343 4,5 L4,19 C4,20.657 5.343,22 7,22 L19,22 C19.553,22 20,21.553 20,21 C20,20.447 19.553,20 19,20 L19,17.723 C19.596,17.376 20,16.738 20,16 L20,16 Z"/>
</svg>

<svg width="24" height="24" fill="none" xmlns="http://www.w3.org/2000/svg">
  <path fill-rule="evenodd" clip-rule="evenodd" d="M15.5 9h-7a1.5 1.5 0 010-3h7a1.5 1.5 0 010 3zM17 20H7a1 1 0 110-2h10v2zm3-4V4a2 2 0 00-2-2H7a3 3 0 00-3 3v14a3 3 0 003 3h12a1 1 0 100-2v-2.277c.596-.347 1-.985 1-1.723z" fill="#000"/>
</svg>
